Static/twitter.svg

<svg width="24" height="24" viewBox="0 0 24 24" fill="none" xmlns="http://www.w3.org/2000/svg">
<g clip-path="url(#clip0_652_8634)">
<path d="M12 0C5.37281 0 0 5.37281 0 12C0 18.6272 5.37281 24 12 24C18.6272 24 24 18.6272 24 12C24 5.37281 18.6272 0 12 0Z" fill="black"/>
<path d="M13.312 10.9143L18.449 4.94287H17.2317L12.7712 10.1278L9.20864 4.94287H5.09961L10.4869 12.7833L5.09961 19.0453H6.317L11.0274 13.5699L14.7898 19.0453H18.8988L13.3117 10.9143H13.312ZM6.75563 5.85931H8.62546L17.2323 18.1705H15.3625L6.75563 5.85931Z" fill="white"/>
</g>
<defs>
<clipPath id="clip0_652_8634">
<rect width="24" height="24" fill="white"/>
</clipPath>
</defs>
</svg>

<svg xmlns="http://www.w3.org/2000/svg" width="24" height="24" fill="none"><g clip-path="url(#a)"><path fill="#000" d="M12 0C5.373 0 0 5.373 0 12s5.373 12 12 12 12-5.373 12-12S18.627 0 12 0Z"/><path fill="#fff" d="m13.312 10.914 5.137-5.971h-1.217l-4.46 5.185-3.563-5.185h-4.11l5.388 7.84L5.1 19.045h1.217l4.71-5.475 3.763 5.475h4.109l-5.587-8.13ZM6.756 5.86h1.87l8.606 12.311h-1.87L6.757 5.86Z"/></g><defs><clipPath id="a"><path fill="#fff" d="M0 0h24v24H0z"/></clipPath></defs></svg>
